X:1
T: Come under my Dimity
C:
R:Jig
Q:180
K:D
M:6/8
L:1/16
|:A2|A2d2d2 e2f2d2|c2d2e2 f2e2f2|g2e2f2 g4e2|A2d2d2 e2f2d2|c2d2e2 a2b2a2|g2e2c2 d4A2|
A2d2d2 e2f2d2|c2d2e2 f2e2f2|g2e2f2 g4e2|A2d2d2 e2f2d2|c2d2e2 a2b2a2|g2e2c2 d4:|
|:a2|a2f2a2 g2e2d2|c2d2e2 a2f2a2|g2e2f2 g4e2|a2f2a2 g2e2d2|c2d2e2 a2b2a2|g2e2c2 d4a2|
a2f2a2 g2e2d2|c2d2e2 a2f2a2|g2e2f2 g4e2|a2f2a2 g2e2d2|c2d2e2 a2b2a2|g2e2c2 d4:|
